X:1
T:Aftonröster
T:Aftonröster
T:J. Svendsen
C:J. Svendsen
%%score [ 1 2 3 4 ]
L:1/8
Q:1/4=72
M:4/4
K:Ab
V:1 treble-8 nm="T1"
V:2 treble-8 nm="T2"
V:3 bass nm="B1"
V:4 bass nm="B2"
V:1
"^Andantino"!pp! c2 c2 e3 e | d4 c4 | A2 A2 B3 B | c6 z2 | e2 e2!<(! e3 _f!<)! | %5
w: Stil- la, stil- la|su- sa|grö- na sko- gens|sång!|Våg ej me- ra|
!>(! (_f2 e2)!>)! e4 | e2 e2 e2 =d2 | e6 z2 | .f .f .d .e f2 d2 | .f .f .e .d c4 | %10
w: bru- * sa,|sak- ta nu din|gång!|Lil- la blom- ma! lu- ta|kal- ken u- ti ro,|
 .d .d .B .c d2 c2 | .B .B .=B .B c4 |!mf! d3 d d2 c2 |!<(! c4 d4!<)! |!>(! f3 f!>)! e2 c2 | %15
w: och din surr- ning slu- ta,|bi! kring hen- nes bo.|Berg och dju- pa|da- lar!|ta- gen mot den|
 B6 z2 |!pp! =B2 B2!<(! c3 e!<)! |!>(! e4 d4!>)! | c3 c c2 B2 | e6 z2 |!mf! e2 e2 d3 c | %21
w: frid|som från him- lens|sa- lar|gju- ter ned sig|blid,|som från him- lens|
!>(! c6 B2!>)! |!pp!"^ritard." A3 A A2 G2 | A6 z2 |] %24
w: sa- lar|gju- ter ned sig|blid.|
V:2
!pp! A2 A2 A3 A | G4 A4 | A2 A2 G3 G | A6 z2 | B2 B2!<(! _c3 c!<)! |!>(! _c4!>)! B4 | %6
w: Stil- la, stil- la|su- sa|grö- na sko- gens|sång!|Våg ej me- ra|bru- sa,|
 G2 =A2 B2 B2 | B6 z2 | .d .d .B .c d2 B2 | .B .B .B .B =A4 | .B .B .B .=A B2 _A2 | %11
w: sak- ta nu din|gång!|Lil- la blom- ma! lu- ta|kal- ken u- ti ro,|och din surr- ning slu- ta,|
 .G .G .G .G G4 |!mf! G3 G G2 ^F2 |!<(! ^F4 G4!<)! |!>(! G3 G!>)! A2 A2 | A2 A3/2 A/ A2 A2 | %16
w: bi! kring hen- nes bo.|Berg och dju- pa|da- lar!|ta- gen mot den|frid, ta- gen mot den|
 A2!pp! A3/2 A/!<(! A3 c!<)! |!>(! c4 d4!>)! | A3 A G2 G2 | A6 z2 |!mf! A2 A2 G2 A2 | %21
w: frid, som från him- lens|sa- lar|gju- ter ned sig|blid,|som från him- lens|
!>(! A4 G4!>)! |!pp! E2 =D2 E2 E2 | E6 z2 |] %24
w: sa- lar|gju- ter ned sig|blid.|
V:3
!pp! E,2 E,2 E,3 E, | E,4 E,4 | F,2 F,2 E,3 E, | E,6 z2 | E,2 E,2!<(! E,3 _F,!<)! | %5
w: Stil- la, stil- la|su- sa|grö- na sko- gens|sång!|Våg ej me- ra|
!>(! (_F,2 E,2)!>)! E,4 | E,2 E,2 F,2 A,2 | G,6 z2 | .F, .F, .F, .F, F,2 F,2 | %9
w: bru- * sa,|sak- ta nu din|gång!|Lil- la blom- ma! lu- ta|
 .F, .F, ._G, .=G, =A,4 | .F, .F, .F, .F, F,2 F,2 | .F, .F, .F, .F, =E,4 |!mf! =E,3 E, _E,2 E,2 | %13
w: kal- ken u- ti ro,|och din surr- ning slu- ta,|bi! kring hen- nes bo.|Berg och dju- pa|
!<(! E,4 E,4!<)! |!>(! E,3 E,!>)! E,2 E,2 | F,6 z2 |!pp! F,2 F,2!<(! _G,3 A,!<)! | %17
w: da- lar!|ta- gen mot den|frid|som från him- lens|
!>(! A,4 A,4!>)! | E,3 E, E,2 E,2 | (E,2 A,2 G,2 F,2) |!mf! E,2 E,2 E,2 E,2 | %21
w: sa- lar|gju- ter ned sig|blid, _ _ _|som från him- lens|
!>(! (F,2 _F,2) E,4!>)! |!pp! E,2 =D,2 _D,2 D,2 | C,6 z2 |] %24
w: sa- * lar|gju- ter ned sig|blid.|
V:4
!pp! A,,2 A,,2 C,3 C, | (B,,2 __B,,2) A,,4 | F,2 F,2 E,3 E, | A,,6 z2 | %4
w: Stil- la, stil- la|su- * sa|grö- na sko- gens|sång!|
 G,,2 G,,2!<(! A,,3 A,,!<)! |!>(! A,,4!>)! G,,4 | C,2 _C,2 B,,2 B,,2 | E,6 z2 | %8
w: Våg ej me- ra|bru- sa,|sak- ta nu din|gång!|
 .B,, .B,, .B,, .B,, B,,2 B,,2 | .D, .D, .E, .=E, F,4 | .B,, .B,, .D, .C, B,,2 C,2 | %11
w: Lil- la blom- ma! lu- ta|kal- ken u- ti ro,|och din surr- ning slu- ta,|
 .D, .D, .D, .D, C,4 |!mf! B,,3 B,, B,,2 =A,,2 |!<(! =A,,4 B,,4!<)! |!>(! D,3 D,!>)! C,2 A,,2 | %15
w: bi! kring hen- nes bo.|Berg och dju- pa|da- lar!|ta- gen mot den|
 D,6 z2 |!pp! =D,2 D,2!<(! E,3 _G,!<)! |!>(! _G,4 F,4!>)! | E,3 E, D,2 D,2 | C,6 z2 | %20
w: frid|som från him- lens|sa- lar|gju- ter ned sig|blid,|
!mf! C,2 C,2 B,,2 A,,2 |!>(! D,4 D,4!>)! |!pp! C,2 _C,2 B,,2 B,,2 | A,,6 z2 |] %24
w: som från him- lens|sa- lar|gju- ter ned sig|blid.|

